T: Ah! Sure Such A Pair
M: 6/8
L: 1/8
K: Gmaj
|: G | G>AG B>cB | d>ed (g<b)a | gdB  cde | dgB  A2 G  |
G>AG B>cB | dba   g2 d  | gdB  cde | dBG  A2 :|
|: G | B2 c d2 g | baf  gdc  | B2 b bag | e2 g  adc  |
BAB  cBc  | dba  g2 d  | gdB cde | dBG  A2 :|
